!!!OTL: Huaishu kaihua
!!!ARE: Asia, China, Shanxi Xixian
!! I, 299, 2)
!!!SCT: C2102
!!!YEM: Copyright 1995, estate of Helmut Schaffrath.
**kern
*ICvox
*Ivox
*M2/4
*k[b-e-]
*B-:
{4ccc
8gg
8bb-
=1
4ccc
4ccc
=2
4fff
4fff
=3
8fff
8ggg
4eee-}
=4
{4ccc
8gg
8bb-
=5
4ccc
8een
8gg
=6
4ff
8gg
8een
=7
2ff}
=8
{4ccc
8gg
8bb-
=9
4ccc
4ccc
=10
4fff
4fff
=11
8fff
8ggg
4eee-}
=12
{8.ddd
16ccc
8bb-
8bb-
=13
8ccc
8bb-
8aa
8gg
=14
4ff
8gg
8ee-
=15
2ff}
==
!!!AGN: Xiaodiao
!! Han
!!!ONB: ESAC (Essen Associative Code) Database: SENGANSU
!!!AMT: simple duple
!!!AIN: vox
!!!EED: Helmut Schaffrath
!!!EEV: 1.0
*-
